Numix-GalliumOS/48/actions/tap-extract-to.svg

<?xml version="1.0" encoding="UTF-8" standalone="no"?>
<svg
   xmlns:dc="http://purl.org/dc/elements/1.1/"
   xmlns:cc="http://creativecommons.org/ns#"
   xmlns:rdf="http://www.w3.org/1999/02/22-rdf-syntax-ns#"
   xmlns:svg="http://www.w3.org/2000/svg"
   xmlns="http://www.w3.org/2000/svg"
   xmlns:sodipodi="http://sodipodi.sourceforge.net/DTD/sodipodi-0.dtd"
   xmlns:inkscape="http://www.inkscape.org/namespaces/inkscape"
   width="48"
   height="48"
   viewBox="0 0 48 48"
   id="svg2"
   version="1.1"
   inkscape:version="0.91 r13725"
   sodipodi:docname="tap-extract-to.svg">
  <metadata
     id="metadata16">
    <rdf:RDF>
      <cc:Work
         rdf:about="">
        <dc:format>image/svg+xml</dc:format>
        <dc:type
           rdf:resource="http://purl.org/dc/dcmitype/StillImage" />
      </cc:Work>
    </rdf:RDF>
  </metadata>
  <defs
     id="defs14" />
  <sodipodi:namedview
     pagecolor="#ffffff"
     bordercolor="#666666"
     borderopacity="1"
     objecttolerance="10"
     gridtolerance="10"
     guidetolerance="10"
     inkscape:pageopacity="0"
     inkscape:pageshadow="2"
     inkscape:window-width="1366"
     inkscape:window-height="704"
     id="namedview12"
     showgrid="false"
     inkscape:zoom="4.9166667"
     inkscape:cx="-15.864407"
     inkscape:cy="24"
     inkscape:window-x="0"
     inkscape:window-y="27"
     inkscape:window-maximized="1"
     inkscape:current-layer="svg2" />
  <path
     style="fill:#c19553"
     d="M 6.289062,4 C 5.144531,4 4,5.144531 4,6.289062 L 4,41.777344 C 4,42.855469 5.144531,44 6.222656,44 l 35.554688,0 C 42.855469,44 44,42.855469 44,41.777344 L 44,6.222656 C 44,5.144531 42.855469,4 41.777344,4 Z"
     id="path4"
     inkscape:connector-curvature="0" />
  <path
     style="fill:#ffffff;fill-opacity:0.19599998"
     d="M 6.289062,4 C 5.144531,4 4,5.144531 4,6.289062 L 4,20 c 4.441406,0 35.558594,0 40,0 L 44,6.222656 C 44,5.144531 42.855469,4 41.777344,4 Z"
     id="path6"
     inkscape:connector-curvature="0" />
  <path
     style="fill:#ffffff"
     d="m 24,8 -4,0 0,-4 4,0 0,8 -4,0 0,4 4,0 0,8.03125 L 20,24 l 0,8 8,0 0,-8 -4,0.03125 L 24,20 l 4,0 0,-4 -4,0 0,-4 4,0 0,-4 z"
     id="path8"
     inkscape:connector-curvature="0" />
  <path
     style="fill:#268bd2;fill-rule:evenodd"
     d="M 29.183594 16.707031 L 42.933594 27.707031 C 45.691406 30.464844 45.683594 30.457031 42.933594 33.207031 L 29.183594 44.207031 C 27.269531 45.742188 27.269531 45.171875 27.269531 41.378906 C 27.230469 40.003906 27.183594 38.457031 27.269531 36.457031 C 27.238281 36.457031 27.300781 36.457031 27.269531 36.457031 C 13.605469 36.457031 7.183594 27.707031 7.269531 16.621094 C 12.683594 22.207031 19.019531 24.628906 27.269531 24.457031 C 27.269531 22.488281 27.230469 21.785156 27.269531 20.457031 C 27.269531 18.457031 27.269531 15.347656 29.183594 16.707031 Z "
     id="path10" />
</svg>

<svg xmlns="http://www.w3.org/2000/svg" viewBox="0 0 48 48">
 <path d="m 6.289 4 c -1.145 0 -2.289 1.145 -2.289 2.289 l 0 35.488 c 0 1.078 1.145 2.223 2.223 2.223 l 35.555 0 c 1.078 0 2.223 -1.145 2.223 -2.223 l 0 -35.555 c 0 -1.078 -1.145 -2.223 -2.223 -2.223" style="fill:#c19553"/>
 <path d="m 6.289 4 c -1.145 0 -2.289 1.145 -2.289 2.289 l 0 13.711 c 4.441 0 35.559 0 40 0 l 0 -13.777 c 0 -1.078 -1.145 -2.223 -2.223 -2.223" style="fill:#fff;fill-opacity:0.196"/>
 <path d="m 24,8 -4,0 0,-4 4,0 0,8 -4,0 0,4 4,0 0,8.03125 L 20,24 l 0,8 8,0 0,-8 -4,0.03125 L 24,20 l 4,0 0,-4 -4,0 0,-4 4,0 0,-4 z" style="fill:#fff"/>
 <path d="m 29.18 16.707 l 13.75 11 c 2.758 2.758 2.75 2.75 0 5.5 l -13.75 11 c -1.914 1.535 -1.914 0.965 -1.914 -2.828 c -0.039 -1.375 -0.086 -2.922 0 -4.922 c -0.031 0 0.031 0 0 0 c -13.664 0 -20.09 -8.75 -20 -19.836 c 5.414 5.586 11.75 8.01 20 7.836 c 0 -1.969 -0.039 -2.672 0 -4 c 0 -2 0 -5.109 1.914 -3.75 Z" style="fill:#268bd2;fill-rule:evenodd"/>
</svg>
